X:1
T:Title
T:Here we come a-caroling
T:Traditional; Arr. Ron Smith
C:Traditional
%%score 1 2
L:1/8
Q:1/2=45
M:2/4
K:D
V:1 treble nm="Voice" snm="Vo."
V:2 perc stafflines=1 nm="Strum" snm="Str."
K:none
I:percmap E B 75 normal
V:1
"D" (3D-DE (3F-FE | (3D-DE (3F-FE | (3D-DA (3A-AA | A4 |"G" (3B-BB (3A-AF |"D" (3A-AA (3G-GF | %6
w: 1. Here * we come * a|ca- * ro- ling * a-|mong * the leaves * so|green.|Here * we come * a-|wan- * der- ing * so|
w: 2. God bless the mas- * ter|of * this house, * like-|wise * the mis * tress,|too,|And all the lit- * tle|child- * * ren * that|
"A7" (3E-ED (3E-EF | G2 FG |"D" A2 dB | A2 FG | AA dB | A2 FG | A2 BF |"A7" GE DC |"D" D>E FD | %15
w: fair * * to * be|seen. Love and|joy come to|you, and to|you glad Christ- mas,|too, And God|bless you and|send * you a|Hap- * py New|
w: round * the ta- * ble|go. * *||||||||
"G" G2 FG |"D" A2 BF |"A7" GE DC |"D" D4 | z4 :| %20
w: Year, And God|send you a|Hap- * py New|Year.||
w: |||||
V:2
[K:C] E2 E2 | E2 E2 | E2 E2 | E2 z2 | E2 E2 | E2 E2 | E2 E2 | E2 z2 | E2 E2 | E2 E2 | E2 E2 | %11
 E2 E2 | E2 E2 | E2 E2 | E2 E2 | E2 E2 | E2 E2 | E2 E2 | E2 E2 | E2 z2 :| %20

